X: 1
T:Flowers of Michigan -- Reel
M:4/4
L:1/8
R:reel
B:Ryan's Mammoth Collection
N:390
Z:Contributed by Ray Davies,  ray:davies99.freeserve.co.uk
K:Amix
uE2|\
A2 AB cBcd | egdg egdg | (3GGG AB AGBG | AGBA GFED |
A3 B AGAB | cBcd edef | gfga gfed | c2 A2 A2:|
|:u(BG)|\
G3 a a2ba | gfef (gf)g2 | G3 f gfg2 | G3 f gfg2 |
G3 a a2ba | gfef g2d2 | egfa gfed | c2 A2 A2:|
